dist/images/ico/ico_veiw_01.svg

<svg width="11" height="8" viewBox="0 0 11 8" fill="none" xmlns="http://www.w3.org/2000/svg">
<path d="M5.5 0C3 0 0.865 1.65867 0 4C0.865 6.34133 3 8 5.5 8C8 8 10.135 6.34133 11 4C10.135 1.65867 8 0 5.5 0ZM5.5 6.66667C4.12 6.66667 3 5.472 3 4C3 2.528 4.12 1.33333 5.5 1.33333C6.88 1.33333 8 2.528 8 4C8 5.472 6.88 6.66667 5.5 6.66667ZM5.5 2.4C4.67 2.4 4 3.11467 4 4C4 4.88533 4.67 5.6 5.5 5.6C6.33 5.6 7 4.88533 7 4C7 3.11467 6.33 2.4 5.5 2.4Z" fill="#A4A4A4"/>
</svg>

<svg width="11" height="8" fill="none" xmlns="http://www.w3.org/2000/svg"><path d="M5.5 0C3 0 .865 1.659 0 4c.865 2.341 3 4 5.5 4s4.635-1.659 5.5-4c-.865-2.341-3-4-5.5-4zm0 6.667C4.12 6.667 3 5.472 3 4c0-1.472 1.12-2.667 2.5-2.667S8 2.528 8 4c0 1.472-1.12 2.667-2.5 2.667zm0-4.267C4.67 2.4 4 3.115 4 4c0 .885.67 1.6 1.5 1.6S7 4.885 7 4c0-.885-.67-1.6-1.5-1.6z" fill="#A4A4A4"/></svg>
